X:1
T:Volpony
T:Volpony
T:Henry Purcell
C:Henry Purcell
L:1/8
M:3/4
K:G
V:1 treble 
V:1
 G2 (Bc) c(B/c/) | d2 B2 e2 | dg bg ge | f3 g a2 | G2 (Bc) c(B/c/) | d2 B2 e2 | dg bg ge | e4 d2 :: %8
 d2 (fg) g(f/g/) | a2 f2 a2 | bg eg fe | ^d3 d ef | g2 B2 (cB/c/) | d2 G2 e2 | dB BG cB | A4 G2 :| %16

